icons/doctor_male_fill.svg

<svg width="48" height="48" viewBox="0 0 48 48" fill="none" xmlns="http://www.w3.org/2000/svg">
<path fill-rule="evenodd" clip-rule="evenodd" d="M33.8336 13.8108C33.8336 17.2715 32.9737 21.7851 31.6512 21.0998C30.6493 24.3745 27.6028 26.7561 24 26.7561C19.8532 26.7561 16.4434 23.601 16.0399 19.5605C14.7272 17.2629 13.0049 12.6603 17.4321 9.07166C17.5111 9.04556 17.56 8.8302 17.6324 8.51185C17.9057 7.30885 18.5132 4.63511 22.3418 5.14555C25.295 5.53929 33.8337 7.06355 33.8336 13.8108ZM30.0281 15.992C30.0281 15.992 29.5764 17.3137 29.9999 18.7874C29.9831 22.0867 27.3033 24.7561 24 24.7561C20.7627 24.7561 18.1241 22.1922 18.0043 18.9841C18.1494 18.4342 18.1488 17.5027 18.1481 16.4682C18.1469 14.6012 18.1455 12.3989 19.0002 11.5C24.9889 15.4885 30.0281 15.992 30.0281 15.992Z" fill="black"/>
<path d="M13 36C13 34.9177 13.5732 33.9692 14.4326 33.4416C14.4008 33.3213 14.3701 33.1958 14.3406 33.0669C14.2029 32.4653 14.0779 31.7335 13.9862 30.9988C13.9013 30.3182 13.8424 29.6146 13.831 28.993C9.60993 30.6499 6 33.5376 6 36.5699V42H42V36.5699C42 33.6661 38.6895 30.8949 34.7019 29.2101L34.7027 29.2376C34.7198 29.8478 34.6856 30.5473 34.6203 31.2213C34.56 31.8448 34.4711 32.4673 34.3643 33H35C35.3788 33 35.725 33.214 35.8944 33.5528L36.8944 35.5528C36.9639 35.6916 37 35.8448 37 36V38C37 38.5523 36.5523 39 36 39H34V37H35V36.2361L34.382 35H31.618L31 36.2361V37H32V39H30C29.4477 39 29 38.5523 29 38V36C29 35.8448 29.0361 35.6916 29.1056 35.5528L30.1056 33.5528C30.275 33.214 30.6212 33 31 33H32.3152C32.3369 32.9141 32.359 32.8188 32.3811 32.7144C32.4811 32.2429 32.5699 31.6456 32.6297 31.0287C32.6894 30.411 32.7177 29.798 32.7035 29.2937C32.6964 29.0411 32.6791 28.8313 32.6542 28.6699C32.6324 28.5281 32.6104 28.4627 32.6057 28.4487C32.6057 28.4486 32.6057 28.4488 32.6057 28.4487C32.6048 28.4459 32.6045 28.4451 32.6053 28.4466C32.6052 28.4464 32.6054 28.4468 32.6053 28.4466L32.6089 28.4456C32.0745 28.2798 31.5363 28.1348 31 28.0126C30.4972 27.8981 29.9775 28.5902 29.7493 29.0237H25.6851C24.7949 29.0239 24.342 29.0238 23.8968 29.0237H23.8813C23.4264 29.0236 22.9738 29.0235 22.0639 29.0237H18C17.9721 28.9707 17.9436 28.9139 17.9141 28.8551C17.7025 28.4331 17.4413 27.9121 17 28.0126C16.6151 28.1003 16.2293 28.1997 15.8446 28.3101C15.8334 28.4582 15.8279 28.6348 15.8292 28.8375C15.8327 29.3904 15.8856 30.0679 15.9709 30.7512C16.056 31.4332 16.1703 32.0972 16.2901 32.6206C16.3249 32.7725 16.3591 32.9079 16.3919 33.0254C17.8636 33.2174 19 34.476 19 36C19 37.6569 17.6569 39 16 39C14.3431 39 13 37.6569 13 36Z" fill="black"/>
<path d="M17 36C17 36.5742 16.5384 37.0147 16 37.0147C15.4616 37.0147 15 36.5742 15 36C15 35.4258 15.4616 34.9853 16 34.9853C16.5384 34.9853 17 35.4258 17 36Z" fill="black"/>
</svg>

<svg
  xmlns="http://www.w3.org/2000/svg"
  width="24"
  height="24"
  viewBox="0 0 24 24"
  fill="none"
  stroke="currentColor"
  stroke-width="2"
  stroke-linecap="round"
  stroke-linejoin="round"
>
  <path
    fill-rule="evenodd"
    d="M33.834 13.81c0 3.461-.86 7.975-2.183 7.29a8.001 8.001 0 0 1-15.611-1.54c-1.313-2.297-3.035-6.9 1.392-10.488.08-.026.128-.242.2-.56.274-1.203.881-3.877 4.71-3.366 2.953.393 11.492 1.918 11.492 8.665m-3.806 2.182s-.452 1.322-.028 2.795a6 6 0 0 1-11.996.197c.145-.55.145-1.481.144-2.516-.001-1.867-.003-4.07.852-4.968 5.989 3.989 11.028 4.492 11.028 4.492"
    clip-rule="evenodd"
  />
  <path d="M13 36c0-1.082.573-2.03 1.433-2.558a12 12 0 0 1-.092-.375 22 22 0 0 1-.355-2.068 20 20 0 0 1-.155-2.006C9.61 30.65 6 33.538 6 36.57V42h36v-5.43c0-2.904-3.31-5.675-7.298-7.36v.028c.018.61-.016 1.31-.082 1.983-.06.624-.149 1.246-.256 1.779H35a1 1 0 0 1 .894.553l1 2c.07.139.106.292.106.447v2a1 1 0 0 1-1 1h-2v-2h1v-.764L34.382 35h-2.764L31 36.236V37h1v2h-2a1 1 0 0 1-1-1v-2c0-.155.036-.308.106-.447l1-2A1 1 0 0 1 31 33h1.315q.033-.129.066-.286c.1-.471.189-1.068.249-1.685.06-.618.088-1.231.073-1.735a5 5 0 0 0-.049-.624c-.022-.142-.044-.207-.048-.221q-.002-.005 0-.002l.003-.001A22 22 0 0 0 31 28.013c-.503-.115-1.023.577-1.25 1.01H18l-.086-.168c-.212-.422-.473-.943-.914-.842q-.578.131-1.155.297a7 7 0 0 0-.016.527c.004.553.057 1.23.142 1.914.085.682.2 1.346.32 1.87q.052.227.1.404A3 3 0 1 1 13 36" />
  <path d="M17 36c0 .574-.462 1.015-1 1.015s-1-.44-1-1.015c0-.574.462-1.015 1-1.015s1 .44 1 1.015" />
</svg>
